icons/evolvere-blue-folders-flat-vivid-dark-fallback/apps/64/nerolinux.svg

<?xml version="1.0" encoding="UTF-8" standalone="no"?>
<!-- Created with Inkscape (http://www.inkscape.org/) -->

<svg
   xmlns:dc="http://purl.org/dc/elements/1.1/"
   xmlns:cc="http://creativecommons.org/ns#"
   xmlns:rdf="http://www.w3.org/1999/02/22-rdf-syntax-ns#"
   xmlns:svg="http://www.w3.org/2000/svg"
   xmlns="http://www.w3.org/2000/svg"
   xmlns:sodipodi="http://sodipodi.sourceforge.net/DTD/sodipodi-0.dtd"
   xmlns:inkscape="http://www.inkscape.org/namespaces/inkscape"
   width="64"
   height="64"
   id="svg13094"
   version="1.1"
   inkscape:version="0.91+devel r"
   sodipodi:docname="nerolinux.svg">
  <sodipodi:namedview
     id="base"
     pagecolor="#ffffff"
     bordercolor="#666666"
     borderopacity="1.0"
     inkscape:pageopacity="0"
     inkscape:pageshadow="2"
     inkscape:zoom="11.313709"
     inkscape:cx="32.600471"
     inkscape:cy="32.524823"
     inkscape:document-units="px"
     inkscape:current-layer="svg13094"
     showgrid="true"
     inkscape:snap-bbox="true"
     inkscape:bbox-paths="true"
     inkscape:bbox-nodes="true"
     inkscape:snap-bbox-edge-midpoints="true"
     inkscape:snap-bbox-midpoints="true"
     inkscape:object-paths="true"
     inkscape:snap-intersection-paths="true"
     inkscape:object-nodes="true"
     inkscape:snap-smooth-nodes="true"
     inkscape:snap-midpoints="true"
     inkscape:snap-object-midpoints="true"
     inkscape:snap-center="true"
     showguides="false"
     inkscape:guide-bbox="true"
     inkscape:window-width="1920"
     inkscape:window-height="1023"
     inkscape:window-x="-10"
     inkscape:window-y="35"
     inkscape:window-maximized="1"
     inkscape:snap-global="true"
     fit-margin-top="0"
     fit-margin-left="0"
     fit-margin-right="0"
     fit-margin-bottom="0"
     showborder="true"
     inkscape:showpageshadow="false"
     inkscape:snap-page="true">
    <inkscape:grid
       type="xygrid"
       id="grid3075"
       empspacing="5"
       visible="true"
       enabled="true"
       snapvisiblegridlinesonly="true"
       originx="1.6362304e-08px"
       originy="18px" />
    <sodipodi:guide
       orientation="0,1"
       position="-11,30"
       id="guide9148" />
    <sodipodi:guide
       orientation="1,0"
       position="32,70"
       id="guide9150" />
  </sodipodi:namedview>
  <defs
     id="defs13096" />
  <metadata
     id="metadata13099">
    <rdf:RDF>
      <cc:Work
         rdf:about="">
        <dc:format>image/svg+xml</dc:format>
        <dc:type
           rdf:resource="http://purl.org/dc/dcmitype/StillImage" />
        <dc:title></dc:title>
      </cc:Work>
    </rdf:RDF>
  </metadata>
  <path
     id="path6538"
     d="m 0,4 0,30 0,28 2,2 30,0 30,0 2,-2 L 64,34 64,4 32,4 0,4 Z"
     style="color:#000000;display:inline;overflow:visible;visibility:visible;fill:#aeb4c3;fill-opacity:1;fill-rule:nonzero;stroke:none;stroke-width:2.28571415;marker:none;enable-background:accumulate"
     inkscape:connector-curvature="0" />
  <path
     inkscape:connector-curvature="0"
     style="color:#000000;display:inline;overflow:visible;visibility:visible;fill:#e7ecf0;fill-opacity:1;fill-rule:nonzero;stroke:none;marker:none;enable-background:accumulate"
     d="M 2,0 0,1 0,4 19.5625,4 39.125,4 64,4 64,1 62,0 39.125,0 19.5625,0 2,0 Z"
     id="path6688" />
  <g
     id="g3043"
     inkscape:export-filename="folder.png"
     inkscape:export-xdpi="90"
     inkscape:export-ydpi="90"
     transform="translate(-0.62500009,0.082283)" />
  <g
     id="scalable"
     transform="matrix(1.0385892,0,0,1.0385892,1214.7222,1878.8121)"
     inkscape:label="#g3701"
     style="fill:#ffffff" />
  <path
     style="opacity:1;fill:#f2f5f7;fill-opacity:1;fill-rule:nonzero;stroke-width:1;stroke-linecap:butt;stroke-linejoin:miter;stroke-miterlimit:4;stroke-dasharray:none;stroke-dashoffset:0;stroke-opacity:1"
     d="M 0,3 0,6 2,4 Z"
     id="path4298"
     inkscape:connector-curvature="0"
     sodipodi:nodetypes="cccc" />
  <path
     inkscape:connector-curvature="0"
     style="opacity:1;fill:#ccd1db;fill-opacity:1;stroke:none;stroke-width:1;stroke-linecap:butt;stroke-linejoin:miter;stroke-miterlimit:4;stroke-dasharray:none;stroke-dashoffset:0;stroke-opacity:1;marker:none"
     id="path3028"
     d="M 64,6 62,4 64,3 Z" />
  <path
     style="color:#000000;fill:#bd2b2b;fill-opacity:1;fill-rule:nonzero;stroke:none;stroke-width:2;marker:none;visibility:visible;display:inline;overflow:visible;enable-background:accumulate"
     d="M 32 7 C 17.088312 7 5 19.088312 5 34 C 5 45.183766 11.809294 54.776177 21.5 58.875 C 13.731712 53.237412 16.8109 42.789233 18.5625 35.3125 C 22.723169 45.494513 43.215236 43.303787 46.09375 57.03125 C 46.745262 56.631667 47.386545 56.201776 48 55.75 C 44.049121 38.44779 11.261716 42.572965 23.6875 19.03125 C 29.705942 30.611648 40.53451 27.338091 41.4375 39.28125 C 42.865492 34.993669 42.674459 30.543392 37.9375 27.71875 C 49.300462 31.654869 51.610216 38.416044 48.65625 55.25 C 54.956413 50.307197 59 42.628704 59 34 C 59 19.088312 46.911688 7 32 7 z M 25.84375 50.1875 C 22.530269 54.73102 28.495688 58.38404 32.6875 61 C 36.848598 60.894632 40.793076 59.845677 44.28125 58.0625 C 40.574586 53.705018 32.656852 50.502749 25.84375 50.1875 z "
     id="path3039" />
</svg>

<svg xmlns="http://www.w3.org/2000/svg" viewBox="0 0 64 64"><g color="#000"><path d="m0 4v30 28l2 2h30 30l2-2v-28-30h-32-32" fill="#aeb4c3"/><path d="m2 0l-2 1v3h19.563 19.563 24.875v-3l-2-1h-22.875-19.563-17.563" fill="#e7ecf0"/></g><path d="m0 3v3l2-2" fill="#f2f5f7"/><path d="m64 6l-2-2 2-1" fill="#ccd1db"/><path d="m32 7c-14.912 0-27 12.09-27 27 0 11.184 6.809 20.776 16.5 24.875-7.768-5.638-4.689-16.09-2.938-23.563 4.161 10.182 24.653 7.991 27.531 21.719.652-.4 1.293-.829 1.906-1.281-3.951-17.302-36.738-13.177-24.313-36.719 6.02 11.58 16.847 8.307 17.75 20.25 1.428-4.288 1.237-8.738-3.5-11.563 11.363 3.936 13.673 10.697 10.719 27.531 6.3-4.943 10.344-12.621 10.344-21.25 0-14.912-12.09-27-27-27m-6.156 43.19c-3.313 4.544 2.652 8.197 6.844 10.813 4.161-.105 8.106-1.154 11.594-2.938-3.707-4.357-11.624-7.56-18.438-7.875" fill="#bd2b2b" color="#000"/></svg>
